X: 94
M: 2/2	% The book has just "2".
L: 1/8
K: Am
|: A2B2 |\
c2A2 c2d2 | e4 e2dc | B2c2 d2B2 | c2A2 A2B2 |\
c2A2 c2d2 | e4 e2dc | B2A2 B2^G2 | A4 :|\
|: e2ef |\
g2g2 g2g2 | g4 g2fe |
d2e2 f2d2 | e2c2 edef |\
e4 d4 | c4 A2B2 | c2A2 c2d2 | e4  e2dc |\


